en/_assets/datasphere/jupyterlab/push.svg

<svg width="16" viewBox="0 0 18 18" xmlns="http://www.w3.org/2000/svg">
<path class="jp-icon3" d="M14.5125 7.53C14.0025 4.9425 11.73 3 9 3C6.8325 3 4.95 4.23 4.0125 6.03C1.755 6.27 0 8.1825 0 10.5C0 12.9825 2.0175 15 4.5 15H14.25C16.32 15 18 13.32 18 11.25C18 9.27 16.4625 7.665 14.5125 7.53ZM14.25 13.5H4.5C2.8425 13.5 1.5 12.1575 1.5 10.5C1.5 8.9625 2.6475 7.68 4.17 7.5225L4.9725 7.44L5.3475 6.7275C6.06 5.355 7.455 4.5 9 4.5C10.965 4.5 12.66 5.895 13.0425 7.8225L13.2675 8.9475L14.415 9.03C15.585 9.105 16.5 10.0875 16.5 11.25C16.5 12.4875 15.4875 13.5 14.25 13.5ZM6 9.75H7.9125V12H10.0875V9.75H12L9 6.75L6 9.75Z" fill="#4F4F4F"/>
</svg>

<svg xmlns="http://www.w3.org/2000/svg" width="16" viewBox="0 0 18 18"><path fill="#4F4F4F" d="M14.512 7.53A5.617 5.617 0 0 0 9 3a5.622 5.622 0 0 0-4.987 3.03A4.496 4.496 0 0 0 0 10.5C0 12.982 2.018 15 4.5 15h9.75c2.07 0 3.75-1.68 3.75-3.75a3.732 3.732 0 0 0-3.488-3.72Zm-.262 5.97H4.5a3 3 0 0 1-3-3 2.98 2.98 0 0 1 2.67-2.978l.803-.082.375-.713A4.102 4.102 0 0 1 9 4.5a4.127 4.127 0 0 1 4.043 3.322l.225 1.125 1.147.083a2.235 2.235 0 0 1 2.085 2.22 2.257 2.257 0 0 1-2.25 2.25ZM6 9.75h1.912V12h2.176V9.75H12l-3-3-3 3Z" class="jp-icon3"/></svg>
